;FLAVOR:RepRap
;TIME:11529
;Filament used: 12.0517m
;Layer height: 0.2
;Generated with Cura_SteamEngine 2.4.0
M190 S55
M104 S205
M109 S205
G28 ;Home
G1 Z15.0 F6000 ;Move the platform down 15mm
;Prime the extruder
G92 E0
G1 F200 E3
G92 E0
;LAYER_COUNT:32
;LAYER:0
M107
G1 F1500 E-6.5
G0 F3600 X24.278 Y53.198 Z0.3
;TYPE:SKIRT
G1 F1500 E0
G1 F1800 X24.746 Y53.008 E0.0252
G1 X25.239 Y52.895 E0.05043
G1 X25.709 Y52.86 E0.07395
G1 X194.29 Y52.861 E8.48449
G1 X194.794 Y52.901 E8.50971
G1 X195.285 Y53.02 E8.53492
G1 X195.752 Y53.214 E8.56014
G1 X196.182 Y53.48 E8.58537
G1 X196.565 Y53.81 E8.61059
G1 X196.891 Y54.197 E8.63584
G1 X197.152 Y54.63 E8.66106
G1 X197.342 Y55.098 E8.68626
G1 X197.455 Y55.591 E8.71149
G1 X197.49 Y56.061 E8.73501
G1 X197.49 Y125.84 E12.2163
G1 X197.45 Y126.344 E12.24152
G1 X197.331 Y126.835 E12.26673
G1 X197.137 Y127.302 E12.29195
G1 X196.871 Y127.732 E12.31718
G1 X196.541 Y128.115 E12.3424
G1 X196.154 Y128.441 E12.36765
G1 X195.721 Y128.702 E12.39287
G1 X195.253 Y128.892 E12.41807
G1 X194.76 Y129.005 E12.4433
G1 X194.29 Y129.04 E12.46682
G1 X25.709 Y129.04 E20.87736
G1 X25.205 Y129 E20.90258
G1 X24.714 Y128.881 E20.92779
G1 X24.247 Y128.687 E20.95302
G1 X23.817 Y128.421 E20.97824
G1 X23.434 Y128.091 E21.00346
G1 X23.108 Y127.704 E21.02871
G1 X22.847 Y127.271 E21.05393
G1 X22.657 Y126.803 E21.07913
G1 X22.544 Y126.31 E21.10436
G1 X22.509 Y125.84 E21.12788
G1 X22.509 Y56.06 E24.60922
G1 X22.549 Y55.556 E24.63444
G1 X22.668 Y55.065 E24.65965
G1 X22.862 Y54.598 E24.68487
G1 X23.128 Y54.168 E24.7101
G1 X23.458 Y53.785 E24.73532
G1 X23.845 Y53.459 E24.76057
G1 X24.278 Y53.198 E24.78579
G1 F1500 E18.28579
G0 F3600 X35.756 Y55.417
G0 X35.835 Y55.432
G0 X110.624 Y69.898
G0 X110.702 Y69.913
G0 X110.868 Y69.946
G0 X110.868 Y69.681
;TYPE:SUPPORT
G1 F1500 E24.78579
G1 F1800 X167.704 Y69.681 E27.62135
G1 X167.703 Y70.304 E27.65243
G1 X167.939 Y70.626 E27.67235
G1 X167.94 Y72.306 E27.75617
G1 X167.897 Y72.647 E27.77331
G1 X167.713 Y73.112 E27.79826
G1 X166.868 Y73.629 E27.84768
G1 X166.587 Y73.734 E27.86265
G1 X165.91 Y73.755 E27.89644
G1 X165.31 Y73.812 E27.92651
G1 X165.008 Y73.695 E27.94267
G1 X162.489 Y73.701 E28.06834
G1 X157.178 Y73.692 E28.33331
G1 X113.179 Y73.697 E30.52843
G1 X112.868 Y73.823 E30.54517
G1 X111.816 Y73.703 E30.59799
G1 X111.107 Y73.191 E30.64163
G1 X110.821 Y73.061 E30.6573
G1 X110.679 Y72.633 E30.6798
G1 X110.61 Y72.178 E30.70276
G1 X110.868 Y71.8 E30.72559
G1 X110.868 Y69.681 E30.83131
G1 F1500 E24.33131
G0 F3600 X110.868 Y69.946
G0 X111.972 Y69.946
G0 X111.972 Y69.841
G1 F1500 E30.83131
G1 F1800 X111.972 Y73.56 E31.01685
G0 F3600 X110.938 Y71.982
G1 F1800 X167.78 Y71.982 E33.85271
G0 F3600 X165.292 Y73.633
G1 F1800 X165.292 Y69.841 E34.04189
G1 F1500 E27.54189
G0 F3600 X165.292 Y69.946
G0 X162.626 Y69.946
G0 X162.626 Y69.841
G1 F1500 E34.04189
G1 F1800 X162.626 Y73.541 E34.22648
G0 F3600 X159.96 Y73.536
G1 F1800 X159.96 Y69.841 E34.41083
G1 F1500 E27.91083
G0 F3600 X159.96 Y69.946
G0 X157.294 Y69.946
G0 X157.294 Y69.841
G1 F1500 E34.41083
G1 F1800 X157.294 Y73.532 E34.59497
G0 F3600 X154.628 Y73.533
G1 F1800 X154.628 Y69.841 E34.77917
G1 F1500 E28.27917
G0 F3600 X154.628 Y69.946
G0 X151.962 Y69.946
G0 X151.962 Y69.841
G1 F1500 E34.77917
G1 F1800 X151.962 Y73.533 E34.96336
G0 F3600 X149.296 Y73.533
G1 F1800 X149.296 Y69.841 E35.14756
G1 F1500 E28.64756
G0 F3600 X149.296 Y69.946
G0 X146.63 Y69.946
G0 X146.63 Y69.841
G1 F1500 E35.14756
G1 F1800 X146.63 Y73.534 E35.3318
G0 F3600 X143.964 Y73.534
G1 F1800 X143.964 Y69.841 E35.51605
G1 F1500 E29.01605
G0 F3600 X143.964 Y69.946
G0 X141.298 Y69.946
G0 X141.298 Y69.841
G1 F1500 E35.51605
G1 F1800 X141.298 Y73.534 E35.70029
G0 F3600 X138.632 Y73.535
G1 F1800 X138.632 Y69.841 E35.88458
G1 F1500 E29.38458
G0 F3600 X138.632 Y69.946
G0 X135.966 Y69.946
G0 X135.966 Y69.841
G1 F1500 E35.88458
G1 F1800 X135.966 Y73.535 E36.06888
G0 F3600 X133.3 Y73.535
G1 F1800 X133.3 Y69.841 E36.25317
G1 F1500 E29.75317
G0 F3600 X133.3 Y69.946
G0 X130.634 Y69.946
G0 X130.634 Y69.841
G1 F1500 E36.25317
G1 F1800 X130.634 Y73.536 E36.43752
G0 F3600 X127.968 Y73.536
G1 F1800 X127.968 Y69.841 E36.62186
G1 F1500 E30.12186
G0 F3600 X127.968 Y69.946
G0 X125.302 Y69.946
G0 X125.302 Y69.841
G1 F1500 E36.62186
G1 F1800 X125.302 Y73.536 E36.80621
G0 F3600 X122.636 Y73.536
G1 F1800 X122.636 Y69.841 E36.99055
G1 F1500 E30.49055
G0 F3600 X122.636 Y69.946
G0 X119.97 Y69.946
G0 X119.97 Y69.841
G1 F1500 E36.99055
G1 F1800 X119.97 Y73.537 E37.17494
G0 F3600 X117.304 Y73.537
G1 F1800 X117.304 Y69.841 E37.35934
G1 F1500 E30.85934
G0 F3600 X117.304 Y69.946
G0 X114.638 Y69.946
G0 X114.638 Y69.841
G1 F1500 E37.35934
G1 F1800 X114.638 Y73.537 E37.54373
G1 F1500 E31.04373
G0 F3600 X114.588 Y73.621
G0 X114.547 Y73.69
G0 X110.911 Y79.871
G0 X110.871 Y79.939
G0 X110.868 Y79.946
G0 X110.868 Y79.681
G1 F1500 E37.54373
G1 F1800 X168.102 Y79.681 E40.39915
G1 X168.102 Y82.287 E40.52916
G1 X168.09 Y82.408 E40.53523
G1 X168.049 Y82.645 E40.54723
G1 X167.888 Y83.021 E40.56763
G1 X167.693 Y83.282 E40.58389
G1 X167.619 Y83.363 E40.58936
G1 X167.128 Y83.713 E40.61945
G1 X166.133 Y83.822 E40.66938
G1 X165.796 Y83.696 E40.68733
G1 X163.47 Y83.701 E40.80338
G1 X158.034 Y83.692 E41.07458
G1 X113.163 Y83.697 E43.3132
G1 X112.847 Y83.823 E43.33018
G1 X111.836 Y83.709 E43.38094
G1 X111.177 Y83.235 E43.42143
G1 X110.887 Y83.077 E43.43791
G1 X110.689 Y82.676 E43.46022
G1 X110.603 Y82.169 E43.48588
G1 X110.868 Y81.802 E43.50846
G1 X110.868 Y79.681 E43.61428
G0 F3600 X111.028 Y79.98
G1 F1800 X167.942 Y79.98 E46.45373
G1 F1500 E39.95373
G0 F3600 X165.292 Y79.946
G0 X165.292 Y79.841
G1 F1500 E46.45373
G1 F1800 X165.292 Y83.538 E46.63817
G0 F3600 X162.626 Y83.539
G1 F1800 X162.626 Y79.841 E46.82267
G1 F1500 E40.32267
G0 F3600 X162.626 Y79.946
G0 X159.96 Y79.946
G0 X159.96 Y79.841
G1 F1500 E46.82267
G1 F1800 X159.96 Y83.535 E47.00696
G0 F3600 X157.294 Y83.533
G1 F1800 X157.294 Y79.841 E47.19116
G1 F1500 E40.69116
G0 F3600 X157.294 Y79.946
G0 X154.628 Y79.946
G0 X154.628 Y79.841
G1 F1500 E47.19116
G1 F1800 X154.628 Y83.533 E47.37535
G0 F3600 X151.962 Y83.533
G1 F1800 X151.962 Y79.841 E47.55955
G1 F1500 E41.05955
G0 F3600 X151.962 Y79.946
G0 X149.296 Y79.946
G0 X149.296 Y79.841
G1 F1500 E47.55955
G1 F1800 X149.296 Y83.533 E47.74374
G0 F3600 X146.63 Y83.534
G1 F1800 X146.63 Y79.841 E47.92799
G1 F1500 E41.42799
G0 F3600 X146.63 Y79.946
G0 X143.964 Y79.946
G0 X143.964 Y79.841
G1 F1500 E47.92799
G1 F1800 X143.964 Y83.534 E48.11223
G0 F3600 X141.298 Y83.534
G1 F1800 X141.298 Y79.841 E48.29647
G1 F1500 E41.79647
G0 F3600 X141.298 Y79.946
G0 X138.632 Y79.946
G0 X138.632 Y79.841
G1 F1500 E48.29647
G1 F1800 X138.632 Y83.535 E48.48077
G0 F3600 X135.966 Y83.535
G1 F1800 X135.966 Y79.841 E48.66506
G1 F1500 E42.16506
G0 F3600 X135.966 Y79.946
G0 X133.3 Y79.946
G0 X133.3 Y79.841
G1 F1500 E48.66506
G1 F1800 X133.3 Y83.535 E48.84936
G0 F3600 X130.634 Y83.536
G1 F1800 X130.634 Y79.841 E49.0337
G1 F1500 E42.5337
G0 F3600 X130.634 Y79.946
G0 X127.968 Y79.946
G0 X127.968 Y79.841
G1 F1500 E49.0337
G1 F1800 X127.968 Y83.536 E49.21805
G0 F3600 X125.302 Y83.536
G1 F1800 X125.302 Y79.841 E49.40239
G1 F1500 E42.90239
G0 F3600 X125.302 Y79.946
G0 X122.636 Y79.946
G0 X122.636 Y79.841
G1 F1500 E49.40239
G1 F1800 X122.636 Y83.536 E49.58674
G0 F3600 X119.97 Y83.537
G1 F1800 X119.97 Y79.841 E49.77113
G1 F1500 E43.27113
G0 F3600 X119.97 Y79.946
G0 X117.304 Y79.946
G0 X117.304 Y79.841
G1 F1500 E49.77113
G1 F1800 X117.304 Y83.537 E49.95552
G0 F3600 X114.638 Y83.537
G1 F1800 X114.638 Y79.841 E50.13992
G1 F1500 E43.63992
G0 F3600 X114.638 Y79.946
G0 X111.972 Y79.946
G0 X111.972 Y79.841
G1 F1500 E50.13992
G1 F1800 X111.972 Y83.564 E50.32566
G0 F3600 X110.854 Y82.646
G1 F1800 X167.874 Y82.646 E53.1704
G1 F1500 E46.6704
G0 F3600 X167.901 Y83.545
G0 X167.904 Y83.625
G0 X168.099 Y89.866
G0 X168.101 Y89.946
G0 X168.102 Y89.946
G0 X168.102 Y89.681
G1 F1500 E53.1704
G1 F1800 X168.102 Y92.287 E53.30041
G1 X168.09 Y92.408 E53.30648
G1 X168.049 Y92.645 E53.31848
G1 X167.888 Y93.021 E53.33888
G1 X167.693 Y93.282 E53.35514
G1 X167.619 Y93.363 E53.36061
G1 X167.128 Y93.713 E53.39069
G1 X166.133 Y93.822 E53.44063
G1 X165.796 Y93.696 E53.45858
G1 X163.47 Y93.701 E53.57463
G1 X158.034 Y93.692 E53.84583
G1 X113.163 Y93.697 E56.08445
G1 X112.847 Y93.823 E56.10143
G1 X111.836 Y93.709 E56.15218
G1 X111.177 Y93.235 E56.19268
G1 X110.887 Y93.077 E56.20916
G1 X110.689 Y92.676 E56.23147
G1 X110.603 Y92.169 E56.25713
G1 X110.868 Y91.802 E56.27971
G1 X110.868 Y89.681 E56.38553
G1 X168.102 Y89.681 E59.24094
G1 F1500 E52.74094
G0 F3600 X168.102 Y89.946
G0 X167.942 Y90.644
G1 F1500 E59.24094
G1 F1800 X111.028 Y90.644 E62.0804
G1 F1500 E55.5804
G0 F3600 X111.972 Y89.946
G0 X111.972 Y89.841
G1 F1500 E62.0804
G1 F1800 X111.972 Y93.564 E62.26614
G0 F3600 X111.554 Y93.31
G1 F1800 X167.415 Y93.31 E65.05305
G0 F3600 X165.292 Y93.538
G1 F1800 X165.292 Y89.841 E65.2375
G1 F1500 E58.7375
G0 F3600 X165.292 Y89.946
G0 X162.626 Y89.946
G0 X162.626 Y89.841
G1 F1500 E65.2375
G1 F1800 X162.626 Y93.539 E65.42199
G0 F3600 X159.96 Y93.535
G1 F1800 X159.96 Y89.841 E65.60629
G1 F1500 E59.10629
G0 F3600 X159.96 Y89.946
G0 X157.294 Y89.946
G0 X157.294 Y89.841
G1 F1500 E65.60629
G1 F1800 X157.294 Y93.533 E65.79048
G0 F3600 X154.628 Y93.533
G1 F1800 X154.628 Y89.841 E65.97467
G1 F1500 E59.47467
G0 F3600 X154.628 Y89.946
G0 X151.962 Y89.946
G0 X151.962 Y89.841
G1 F1500 E65.97467
G1 F1800 X151.962 Y93.533 E66.15887
G0 F3600 X149.296 Y93.533
G1 F1800 X149.296 Y89.841 E66.34306
G1 F1500 E59.84306
G0 F3600 X149.296 Y89.946
G0 X146.63 Y89.946
G0 X146.63 Y89.841
G1 F1500 E66.34306
G1 F1800 X146.63 Y93.534 E66.52731
G0 F3600 X143.964 Y93.534
G1 F1800 X143.964 Y89.841 E66.71155
G1 F1500 E60.21155
G0 F3600 X143.964 Y89.946
G0 X141.298 Y89.946
G0 X141.298 Y89.841
G1 F1500 E66.71155
G1 F1800 X141.298 Y93.534 E66.8958
G0 F3600 X138.632 Y93.535
G1 F1800 X138.632 Y89.841 E67.08009
G1 F1500 E60.58009
G0 F3600 X138.632 Y89.946
G0 X135.966 Y89.946
G0 X135.966 Y89.841
G1 F1500 E67.08009
G1 F1800 X135.966 Y93.535 E67.26439
G0 F3600 X133.3 Y93.535
G1 F1800 X133.3 Y89.841 E67.44868
G1 F1500 E60.94868
G0 F3600 X133.3 Y89.946
G0 X130.634 Y89.946
G0 X130.634 Y89.841
G1 F1500 E67.44868
G1 F1800 X130.634 Y93.536 E67.63303
G0 F3600 X127.968 Y93.536
G1 F1800 X127.968 Y89.841 E67.81737
G1 F1500 E61.31737
G0 F3600 X127.968 Y89.946
G0 X125.302 Y89.946
G0 X125.302 Y89.841
G1 F1500 E67.81737
G1 F1800 X125.302 Y93.536 E68.00171
G0 F3600 X122.636 Y93.536
G1 F1800 X122.636 Y89.841 E68.18606
G1 F1500 E61.68606
G0 F3600 X122.636 Y89.946
G0 X119.97 Y89.946
G0 X119.97 Y89.841
G1 F1500 E68.18606
G1 F1800 X119.97 Y93.537 E68.37045
G0 F3600 X117.304 Y93.537
G1 F1800 X117.304 Y89.841 E68.55485
G1 F1500 E62.05485
G0 F3600 X117.304 Y89.946
G0 X114.638 Y89.946
G0 X114.638 Y89.841
G1 F1500 E68.55485
G1 F1800 X114.638 Y93.537 E68.73924
G1 F1500 E62.23924
G0 F3600 X114.587 Y93.621
G0 X114.547 Y93.69
G0 X110.911 Y99.87
G0 X110.871 Y99.939
G0 X110.868 Y99.946
G0 X110.868 Y99.681
G1 F1500 E68.73924
G1 F1800 X168.102 Y99.681 E71.59466
G1 X168.102 Y102.287 E71.72467
G1 X168.09 Y102.408 E71.73074
G1 X168.049 Y102.645 E71.74274
G1 X167.888 Y103.021 E71.76314
G1 X167.693 Y103.282 E71.7794
G1 X167.619 Y103.363 E71.78487
G1 X167.128 Y103.713 E71.81495
G1 X166.133 Y103.822 E71.86489
G1 X165.796 Y103.696 E71.88284
G1 X163.47 Y103.701 E71.99889
G1 X158.034 Y103.692 E72.27009
G1 X113.163 Y103.697 E74.50871
G1 X112.847 Y103.823 E74.52568
G1 X111.836 Y103.709 E74.57644
G1 X111.177 Y103.235 E74.61694
G1 X110.887 Y103.077 E74.63342
G1 X110.689 Y102.676 E74.65573
G1 X110.603 Y102.169 E74.68139
G1 X110.868 Y101.802 E74.70397
G1 X110.868 Y99.681 E74.80979
G1 F1500 E68.30979
G0 F3600 X110.868 Y99.946
G0 X111.972 Y99.946
G0 X111.972 Y99.841
G1 F1500 E74.80979
G1 F1800 X111.972 Y103.564 E74.99553
G0 F3600 X111.028 Y101.308
G1 F1800 X167.942 Y101.308 E77.83498
G1 F1500 E71.33498
G0 F3600 X165.292 Y99.946
G0 X165.292 Y99.841
G1 F1500 E77.83498
G1 F1800 X165.292 Y103.538 E78.01942
G0 F3600 X162.626 Y103.539
G1 F1800 X162.626 Y99.841 E78.20392
G1 F1500 E71.70392
G0 F3600 X162.626 Y99.946
G0 X159.96 Y99.946
G0 X159.96 Y99.841
G1 F1500 E78.20392
G1 F1800 X159.96 Y103.535 E78.38821
G0 F3600 X157.294 Y103.533
G1 F1800 X157.294 Y99.841 E78.57241
G1 F1500 E72.07241
G0 F3600 X157.294 Y99.946
G0 X154.628 Y99.946
G0 X154.628 Y99.841
G1 F1500 E78.57241
G1 F1800 X154.628 Y103.533 E78.7566
G0 F3600 X151.962 Y103.533
G1 F1800 X151.962 Y99.841 E78.9408
G1 F1500 E72.4408
G0 F3600 X151.962 Y99.946
G0 X149.296 Y99.946
G0 X149.296 Y99.841
G1 F1500 E78.9408
G1 F1800 X149.296 Y103.533 E79.12499
G0 F3600 X146.63 Y103.534
G1 F1800 X146.63 Y99.841 E79.30923
G1 F1500 E72.80923
G0 F3600 X146.63 Y99.946
G0 X143.964 Y99.946
G0 X143.964 Y99.841
G1 F1500 E79.30923
G1 F1800 X143.964 Y103.534 E79.49348
G0 F3600 X141.298 Y103.534
G1 F1800 X141.298 Y99.841 E79.67772
G1 F1500 E73.17772
G0 F3600 X141.298 Y99.946
G0 X138.632 Y99.946
G0 X138.632 Y99.841
G1 F1500 E79.67772
G1 F1800 X138.632 Y103.535 E79.86202
G0 F3600 X135.966 Y103.535
G1 F1800 X135.966 Y99.841 E80.04631
G1 F1500 E73.54631
G0 F3600 X135.966 Y99.946
G0 X133.3 Y99.946
G0 X133.3 Y99.841
G1 F1500 E80.04631
G1 F1800 X133.3 Y103.535 E80.23061
G0 F3600 X130.634 Y103.536
G1 F1800 X130.634 Y99.841 E80.41495
G1 F1500 E73.91495
G0 F3600 X130.634 Y99.946
G0 X127.968 Y99.946
G0 X127.968 Y99.841
G1 F1500 E80.41495
G1 F1800 X127.968 Y103.536 E80.5993
G0 F3600 X125.302 Y103.536
G1 F1800 X125.302 Y99.841 E80.78364
G1 F1500 E74.28364
G0 F3600 X125.302 Y99.946
G0 X122.636 Y99.946
G0 X122.636 Y99.841
G1 F1500 E80.78364
G1 F1800 X122.636 Y103.536 E80.96798
G0 F3600 X119.97 Y103.537
G1 F1800 X119.97 Y99.841 E81.15238
G1 F1500 E74.65238
G0 F3600 X119.97 Y99.946
G0 X117.304 Y99.946
G0 X117.304 Y99.841
G1 F1500 E81.15238
G1 F1800 X117.304 Y103.537 E81.33677
G0 F3600 X114.638 Y103.537
G1 F1800 X114.638 Y99.841 E81.52117
G1 F1500 E75.02117
G0 F3600 X114.638 Y98.681
G0 X114.67 Y98.68
G0 X108.816 Y98.611
G0 X108.886 Y98.681
;TYPE:WALL-INNER
G1 F1500 E81.52117
G1 F1800 X108.886 Y102.307 E81.70207
G1 X108.922 Y102.732 E81.72335
G1 X109.04 Y103.171 E81.74603
G1 X109.231 Y103.582 E81.76864
G1 X109.491 Y103.953 E81.79124
G1 X109.812 Y104.275 E81.81392
G1 X110.184 Y104.535 E81.83657
G1 X110.595 Y104.726 E81.85918
G1 X111.032 Y104.843 E81.88175
G1 X111.458 Y104.881 E81.90308
G1 X167.512 Y104.881 E84.69963
G1 X167.937 Y104.843 E84.72092
G1 X168.375 Y104.726 E84.74354
G1 X168.786 Y104.535 E84.76615
G1 X169.157 Y104.275 E84.78875
G1 X169.479 Y103.953 E84.81147
G1 X169.739 Y103.582 E84.83407
G1 X169.93 Y103.171 E84.85668
G1 X170.047 Y102.733 E84.8793
G1 X170.085 Y102.308 E84.90059
G1 X170.085 Y98.681 E85.08154
G1 X108.886 Y98.681 E88.13477
G0 F3600 X108.816 Y98.611
G0 X110.561 Y94.82
G0 X110.595 Y94.726
G1 F1800 X111.032 Y94.843 E88.15734
G1 X111.458 Y94.881 E88.17868
G1 X167.512 Y94.881 E90.97522
G1 X167.937 Y94.843 E90.99651
G1 X168.375 Y94.726 E91.01913
G1 X168.786 Y94.535 E91.04174
G1 X169.157 Y94.275 E91.06434
G1 X169.479 Y93.953 E91.08706
G1 X169.739 Y93.582 E91.10966
G1 X169.93 Y93.171 E91.13227
G1 X170.047 Y92.733 E91.15489
G1 X170.085 Y92.308 E91.17618
G1 X170.085 Y88.681 E91.35713
G1 X108.886 Y88.681 E94.41036
G1 X108.886 Y92.307 E94.59126
G1 X108.922 Y92.732 E94.61254
G1 X109.04 Y93.171 E94.63522
G1 X109.231 Y93.582 E94.65783
G1 X109.491 Y93.953 E94.68043
G1 X109.812 Y94.275 E94.70312
G1 X110.184 Y94.535 E94.72576
G1 X110.595 Y94.726 E94.74837
G0 F3600 X110.561 Y94.82
G0 X109.787 Y94.305
G0 X109.461 Y93.978
G0 X109.197 Y93.601
G0 X109.003 Y93.184
G0 X108.883 Y92.738
G0 X108.858 Y88.653
G0 X111.015 Y84.941
G0 X111.032 Y84.843
G1 F1800 X111.458 Y84.881 E94.76971
G1 X167.512 Y84.881 E97.56625
G1 X167.937 Y84.843 E97.58754
G1 X168.375 Y84.726 E97.61016
G1 X168.786 Y84.535 E97.63277
G1 X169.157 Y84.275 E97.65537
G1 X169.479 Y83.953 E97.67809
G1 X169.739 Y83.582 E97.70069
G1 X169.93 Y83.171 E97.72331
G1 X170.047 Y82.733 E97.74592
G1 X170.085 Y82.308 E97.76721
G1 X170.085 Y78.681 E97.94816
G1 X108.886 Y78.681 E101.00139
G1 X108.886 Y82.307 E101.1823
