;FLAVOR:RepRap
;TIME:2132
;Filament used: 0.938288m
;Layer height: 0.1
;Generated with Cura_SteamEngine 2.4.0
M190 S55
M104 S205
M109 S205
G28 ;Home
G1 Z15.0 F6000 ;Move the platform down 15mm
;Prime the extruder
G92 E0
G1 F200 E3
G92 E0
;LAYER_COUNT:98
;LAYER:0
M107
G1 F1500 E-6.5
G0 F3600 X102.266 Y102.674 Z0.3
;TYPE:SKIRT
G1 F1500 E0
G1 F1800 X102.646 Y102.295 E0.02678
G1 X103.077 Y101.976 E0.05353
G1 X103.551 Y101.725 E0.08029
G1 X104.057 Y101.548 E0.10703
G1 X104.584 Y101.447 E0.1338
G1 X105.003 Y101.424 E0.15474
G1 X109.512 Y101.437 E0.37969
G1 X110.152 Y101.496 E0.41176
G1 X111.301 Y101.707 E0.47004
G1 X111.894 Y101.869 E0.50071
G1 X112.693 Y102.163 E0.54318
G1 X113.118 Y102.352 E0.56639
G1 X113.77 Y102.693 E0.6031
G1 X114.189 Y102.95 E0.62762
G1 X114.914 Y103.466 E0.67202
G1 X115.466 Y103.951 E0.70868
G1 X116.506 Y105.072 E0.78497
G1 X116.921 Y105.615 E0.81906
G1 X117.314 Y106.245 E0.85611
G1 X117.562 Y106.717 E0.88271
G1 X118.009 Y107.747 E0.93872
G1 X118.214 Y108.369 E0.9714
G1 X118.414 Y109.234 E1.01569
G1 X118.491 Y109.701 E1.03931
G1 X118.565 Y110.473 E1.078
G1 X118.581 Y110.848 E1.09672
G1 X118.522 Y117.595 E1.43335
G1 X118.583 Y127.089 E1.90701
G1 X118.546 Y127.624 E1.93377
G1 X118.431 Y128.148 E1.96053
G1 X118.16 Y128.805 E1.99599
G1 X115.933 Y132.985 E2.23228
G1 X114.766 Y135.387 E2.36551
G1 X112.585 Y140.408 E2.63862
G1 X110.695 Y145.538 E2.91138
G1 X109.105 Y150.748 E3.18314
G1 X107.796 Y156.093 E3.45768
G1 X107.274 Y158.712 E3.59091
G1 X106.447 Y163.952 E3.85558
G1 X106.324 Y164.474 E3.88233
G1 X106.125 Y164.972 E3.90909
G1 X105.854 Y165.435 E3.93585
G1 X105.518 Y165.853 E3.96261
G1 X105.123 Y166.215 E3.98934
G1 X104.679 Y166.516 E4.0161
G1 X104.195 Y166.747 E4.04286
G1 X103.682 Y166.903 E4.06961
G1 X102.889 Y166.991 E4.10941
G1 X93.337 Y166.985 E4.58596
G1 X92.802 Y166.945 E4.61273
G1 X92.279 Y166.825 E4.6395
G1 X91.78 Y166.63 E4.66623
G1 X91.396 Y166.415 E4.68819
G1 X91.042 Y166.188 E4.70917
G1 X90.613 Y165.866 E4.73593
G1 X90.237 Y165.484 E4.76267
G1 X89.922 Y165.05 E4.78942
G1 X89.675 Y164.574 E4.81618
G1 X89.559 Y164.264 E4.83269
G1 X89.488 Y164.044 E4.84422
G1 X89.362 Y163.522 E4.87101
G1 X89.314 Y162.938 E4.90025
G1 X89.309 Y117.118 E7.18622
G1 X89.349 Y116.584 E7.21293
G1 X89.468 Y116.061 E7.23969
G1 X89.663 Y115.561 E7.26647
G1 X89.93 Y115.096 E7.29322
G1 X90.264 Y114.676 E7.31999
G1 X90.53 Y114.416 E7.33855
G1 X93.264 Y112.008 E7.52031
G1 X97.211 Y108.22 E7.79324
G1 X100.954 Y104.196 E8.06742
G1 X102.266 Y102.674 E8.16767
G0 F3600 X102.569 Y102.935
G1 F1800 X102.928 Y102.579 E8.1929
G1 X103.339 Y102.284 E8.21814
G1 X103.791 Y102.058 E8.24335
G1 X104.273 Y101.906 E8.26856
G1 X105.002 Y101.824 E8.30516
G1 X109.511 Y101.837 E8.53012
G1 X110.08 Y101.89 E8.55863
G1 X111.229 Y102.101 E8.61691
G1 X111.756 Y102.245 E8.64417
G1 X112.555 Y102.539 E8.68664
G1 X112.933 Y102.706 E8.70726
G1 X113.585 Y103.047 E8.74397
G1 X113.958 Y103.276 E8.76581
G1 X114.683 Y103.792 E8.8102
G1 X115.173 Y104.223 E8.84276
G1 X116.213 Y105.344 E8.91905
G1 X116.582 Y105.826 E8.94933
G1 X116.975 Y106.456 E8.98638
G1 X117.195 Y106.876 E9.01003
G1 X117.642 Y107.906 E9.06605
G1 X117.825 Y108.459 E9.09511
G1 X118.025 Y109.324 E9.1394
G1 X118.092 Y109.74 E9.16042
G1 X118.166 Y110.512 E9.19912
G1 X118.181 Y110.845 E9.21575
G1 X118.122 Y117.592 E9.55237
G1 X118.183 Y127.092 E10.02634
G1 X118.146 Y127.596 E10.05155
G1 X118.031 Y128.088 E10.07676
G1 X117.807 Y128.617 E10.10542
G1 X115.583 Y132.791 E10.34137
G1 X114.397 Y135.233 E10.47681
G1 X112.216 Y140.253 E10.74988
G1 X110.313 Y145.42 E11.02459
G1 X108.717 Y150.646 E11.2972
G1 X107.404 Y156.011 E11.57276
G1 X106.883 Y158.622 E11.70559
G1 X106.052 Y163.89 E11.97167
G1 X105.934 Y164.381 E11.99686
G1 X105.74 Y164.848 E12.02209
G1 X105.475 Y165.279 E12.04733
G1 X105.145 Y165.662 E12.07255
G1 X104.76 Y165.989 E12.09775
G1 X104.327 Y166.251 E12.123
G1 X103.859 Y166.441 E12.1482
G1 X103.366 Y166.556 E12.17346
G1 X102.889 Y166.591 E12.19732
G1 X93.337 Y166.585 E12.67387
G1 X92.833 Y166.545 E12.69909
G1 X92.342 Y166.426 E12.7243
G1 X91.875 Y166.231 E12.74955
G1 X91.612 Y166.079 E12.7647
G1 X91.258 Y165.852 E12.78568
G1 X90.855 Y165.546 E12.81093
G1 X90.505 Y165.181 E12.83616
G1 X90.218 Y164.765 E12.86137
G1 X89.94 Y164.141 E12.89545
G1 X89.869 Y163.921 E12.90699
G1 X89.752 Y163.429 E12.93222
G1 X89.714 Y162.938 E12.95679
G1 X89.709 Y117.118 E15.24276
G1 X89.749 Y116.614 E15.26798
G1 X89.868 Y116.123 E15.29318
G1 X90.062 Y115.656 E15.31841
G1 X90.328 Y115.226 E15.34364
G1 X90.794 Y114.716 E15.37811
G1 X93.534 Y112.303 E15.56026
G1 X97.499 Y108.498 E15.83442
G1 X101.254 Y104.461 E16.10949
G1 X102.569 Y102.935 E16.20999
G1 F1500 E9.70999
G0 F3600 X104.336 Y105.616
G0 X105.614 Y105.615
G0 X105.701 Y105.801
G0 X105.6 Y105.801
;TYPE:WALL-INNER
G1 F1500 E16.20999
G1 F1800 X105.6 Y105.601 E16.21996
G1 X105.8 Y105.601 E16.22643
G1 X109.176 Y105.604 E16.39485
G1 X109.541 Y105.629 E16.41311
G1 X109.898 Y105.676 E16.43107
G1 X110.246 Y105.747 E16.44879
G1 X110.609 Y105.846 E16.46756
G1 X110.945 Y105.963 E16.48531
G1 X111.271 Y106.101 E16.50297
G1 X111.593 Y106.264 E16.52098
G1 X111.905 Y106.449 E16.53908
G1 X112.202 Y106.652 E16.55702
G1 X112.489 Y106.881 E16.57534
G1 X112.754 Y107.12 E16.59315
G1 X113.005 Y107.379 E16.61114
G1 X113.23 Y107.645 E16.62852
G1 X113.448 Y107.94 E16.64682
G1 X113.65 Y108.256 E16.66553
G1 X113.814 Y108.555 E16.68255
G1 X113.975 Y108.901 E16.70159
G1 X114.099 Y109.222 E16.71875
G1 X114.204 Y109.564 E16.7366
G1 X114.293 Y109.936 E16.75569
G1 X114.35 Y110.269 E16.77254
G1 X114.386 Y110.63 E16.79064
G1 X114.4 Y110.999 E16.80906
G1 X114.4 Y114.199 E16.96871
G1 X114.4 Y114.399 E16.97869
G1 X114.2 Y114.399 E16.98515
G1 X105.604 Y114.397 E17.41401
G1 X105.6 Y105.801 E17.84286
G0 F3600 X105.701 Y105.801
G0 X108.306 Y108.37
G0 X108.378 Y108.439
G1 F1800 X108.191 Y108.664 E17.85746
G1 X108.034 Y108.907 E17.87189
G1 X107.914 Y109.16 E17.88586
G1 X107.857 Y109.316 E17.89415
G1 X107.791 Y109.579 E17.90768
G1 X107.765 Y109.743 E17.91596
G1 X107.752 Y110.016 E17.9296
G1 X107.758 Y110.178 E17.93768
G1 X107.797 Y110.456 E17.95169
G1 X107.874 Y110.738 E17.96627
G1 X107.987 Y111.007 E17.98083
G1 X108.135 Y111.26 E17.99545
G1 X108.314 Y111.49 E18.00999
G1 X108.52 Y111.694 E18.02446
G1 X108.75 Y111.872 E18.03897
G1 X109.006 Y112.019 E18.05369
G1 X109.274 Y112.13 E18.06817
G1 X109.554 Y112.205 E18.08263
G1 X109.842 Y112.245 E18.09713
G1 X110.134 Y112.246 E18.1117
G1 X110.422 Y112.21 E18.12618
G1 X110.704 Y112.137 E18.14072
G1 X110.975 Y112.028 E18.15529
G1 X111.23 Y111.884 E18.1699
G1 X111.462 Y111.709 E18.1844
G1 X111.67 Y111.507 E18.19886
G1 X111.851 Y111.28 E18.21335
G1 X112.001 Y111.03 E18.22789
G1 X112.118 Y110.762 E18.24248
G1 X112.199 Y110.482 E18.25702
G1 X112.242 Y110.193 E18.2716
G1 X112.248 Y109.902 E18.28612
G1 X112.216 Y109.612 E18.30068
G1 X112.148 Y109.33 E18.31515
G1 X112.043 Y109.059 E18.32965
G1 X111.905 Y108.801 E18.34425
G1 X111.733 Y108.566 E18.35878
G1 X111.535 Y108.354 E18.37325
G1 X111.307 Y108.169 E18.3879
G1 X111.06 Y108.015 E18.40242
G1 X110.796 Y107.896 E18.41687
G1 X110.519 Y107.81 E18.43134
G1 X110.228 Y107.761 E18.44606
G1 X109.939 Y107.751 E18.46049
G1 X109.65 Y107.777 E18.47496
G1 X109.364 Y107.842 E18.48959
G1 X109.091 Y107.943 E18.50412
G1 X108.834 Y108.077 E18.51858
G1 X108.596 Y108.242 E18.53302
G1 X108.378 Y108.439 E18.54768
G0 F3600 X108.667 Y108.717
;TYPE:WALL-OUTER
G1 F1800 X108.514 Y108.901 E18.55962
G1 X108.384 Y109.102 E18.57157
G1 X108.283 Y109.315 E18.58333
G1 X108.24 Y109.433 E18.58959
G1 X108.183 Y109.66 E18.60127
G1 X108.163 Y109.784 E18.60753
G1 X108.152 Y110.017 E18.61917
G1 X108.157 Y110.142 E18.62541
G1 X108.19 Y110.375 E18.63715
G1 X108.253 Y110.607 E18.64915
G1 X108.346 Y110.828 E18.66111
G1 X108.467 Y111.035 E18.67307
G1 X108.614 Y111.224 E18.68502
G1 X108.784 Y111.393 E18.69698
G1 X108.973 Y111.539 E18.70889
G1 X109.182 Y111.659 E18.72092
G1 X109.403 Y111.75 E18.73284
G1 X109.634 Y111.812 E18.74477
G1 X109.871 Y111.845 E18.75671
G1 X110.11 Y111.846 E18.76863
G1 X110.347 Y111.816 E18.78055
G1 X110.579 Y111.756 E18.79251
G1 X110.801 Y111.667 E18.80444
G1 X111.01 Y111.549 E18.81641
G1 X111.201 Y111.405 E18.82835
G1 X111.373 Y111.238 E18.84031
G1 X111.522 Y111.051 E18.85224
G1 X111.645 Y110.846 E18.86416
G1 X111.741 Y110.626 E18.87614
G1 X111.807 Y110.396 E18.88808
G1 X111.843 Y110.159 E18.90004
G1 X111.848 Y109.92 E18.91196
G1 X111.821 Y109.682 E18.92391
G1 X111.765 Y109.449 E18.93587
G1 X111.679 Y109.226 E18.94779
G1 X111.566 Y109.015 E18.95973
G1 X111.424 Y108.821 E18.97173
G1 X111.262 Y108.647 E18.98359
G1 X111.075 Y108.496 E18.99558
G1 X110.871 Y108.369 E19.00757
G1 X110.654 Y108.271 E19.01945
G1 X110.426 Y108.2 E19.03136
G1 X110.188 Y108.16 E19.0434
G1 X109.95 Y108.152 E19.05528
G1 X109.712 Y108.173 E19.0672
G1 X109.478 Y108.226 E19.07917
G1 X109.254 Y108.309 E19.09109
G1 X109.041 Y108.42 E19.10307
G1 X108.845 Y108.556 E19.11498
G1 X108.667 Y108.717 E19.12695
G0 F3600 X108.539 Y108.87
G0 X108.155 Y108.551
G0 X109.173 Y105.703
G0 X109.188 Y105.204
G1 F1800 X109.588 Y105.231 E19.14695
G1 X109.96 Y105.28 E19.16567
G1 X110.342 Y105.358 E19.18512
G1 X110.724 Y105.463 E19.20489
G1 X111.084 Y105.588 E19.2239
G1 X111.447 Y105.742 E19.24357
G1 X111.781 Y105.911 E19.26225
G1 X112.12 Y106.112 E19.28191
G1 X112.439 Y106.33 E19.30119
G1 X112.749 Y106.576 E19.32093
G1 X113.027 Y106.827 E19.33962
G1 X113.301 Y107.11 E19.35927
G1 X113.547 Y107.401 E19.37828
G1 X113.777 Y107.713 E19.39762
G1 X113.993 Y108.051 E19.41763
G1 X114.173 Y108.378 E19.43625
G1 X114.342 Y108.742 E19.45627
G1 X114.477 Y109.091 E19.47494
G1 X114.591 Y109.461 E19.49426
G1 X114.684 Y109.851 E19.51426
G1 X114.747 Y110.22 E19.53294
G1 X114.786 Y110.606 E19.55229
G1 X114.8 Y110.999 E19.57191
G1 X114.8 Y114.599 E19.75152
G1 X114.8 Y114.799 E19.76149
G1 X114.6 Y114.799 E19.76795
G1 X105.468 Y114.797 E20.22355
G1 X105.404 Y114.783 E20.22682
G1 X105.343 Y114.754 E20.23019
G1 X105.292 Y114.713 E20.23346
G1 X105.246 Y114.655 E20.23715
G1 X105.218 Y114.597 E20.24036
G1 X105.204 Y114.533 E20.24363
G1 X105.2 Y105.401 E20.69923
G1 X105.2 Y105.201 E20.70921
G1 X105.4 Y105.201 E20.71567
G1 X109.188 Y105.204 E20.90465
G0 F3600 X109.388 Y105.217
G0 X109.179 Y105.785
;TYPE:SKIN
G1 F1800 X111.444 Y108.05 E21.06446
G0 X111.514 Y108.12
G0 F3600 X111.941 Y108.547
G1 F1800 X114.213 Y110.819 E21.22476
G0 X114.283 Y110.889
G0 F3600 X114.22 Y111.391
G1 F1800 X112.386 Y109.558 E21.35412
G0 X112.316 Y109.488
G0 F3600 X112.422 Y110.159
G1 F1800 X114.22 Y111.957 E21.48098
G0 X114.29 Y112.027
G0 F3600 X114.22 Y112.523
G1 F1800 X112.339 Y110.642 E21.6137
G0 X112.269 Y110.572
G0 F3600 X112.186 Y111.054
G1 F1800 X114.22 Y113.089 E21.75724
G0 X114.29 Y113.159
G0 F3600 X114.22 Y113.654
G1 F1800 X111.976 Y111.41 E21.91557
G0 X111.906 Y111.34
G0 F3600 X111.715 Y111.715
G1 F1800 X114.218 Y114.218 E22.09217
G0 X114.288 Y114.288
G0 F3600 X113.652 Y114.218
G1 F1800 X111.408 Y111.974 E22.25049
G0 X111.338 Y111.904
G0 F3600 X111.057 Y112.188
G1 F1800 X113.086 Y114.218 E22.39369
G0 X113.156 Y114.288
G0 F3600 X112.521 Y114.218
G1 F1800 X110.641 Y112.338 E22.52633
G0 X110.571 Y112.268
G0 F3600 X110.16 Y112.423
G1 F1800 X111.955 Y114.218 E22.65298
G0 X112.025 Y114.288
G0 F3600 X111.389 Y114.217
G1 F1800 X109.558 Y112.386 E22.78216
G0 X109.488 Y112.316
G0 F3600 X108.554 Y111.948
G1 F1800 X110.823 Y114.217 E22.94225
G0 X110.893 Y114.287
G0 F3600 X110.257 Y114.217
G1 F1800 X105.781 Y109.741 E23.25806
G0 X105.711 Y109.671
G0 F3600 X105.781 Y109.175
G1 F1800 X108.052 Y111.447 E23.41833
G0 X108.122 Y111.517
G0 F3600 X107.614 Y110.443
G1 F1800 X105.781 Y108.609 E23.54769
G0 X105.711 Y108.539
G0 F3600 X105.781 Y108.043
G1 F1800 X107.579 Y109.842 E23.67458
G0 X107.649 Y109.912
G0 F3600 X107.661 Y109.359
G1 F1800 X105.781 Y107.478 E23.80726
G0 X105.711 Y107.408
G0 F3600 X105.78 Y106.911
G1 F1800 X107.816 Y108.947 E23.95091
G0 X107.886 Y109.017
G0 F3600 X108.024 Y108.59
G1 F1800 X105.78 Y106.346 E24.10924
G0 X105.71 Y106.276
G0 F3600 X105.78 Y105.78
G1 F1800 X108.281 Y108.281 E24.2857
G0 X108.351 Y108.351
G0 F3600 X108.591 Y108.025
G1 F1800 X106.346 Y105.781 E24.44406
G0 X106.276 Y105.711
G0 F3600 X106.913 Y105.781
G1 F1800 X108.946 Y107.814 E24.5875
G0 X109.016 Y107.884
G0 F3600 X109.356 Y107.659
G1 F1800 X107.479 Y105.782 E24.71993
G0 X107.409 Y105.712
G0 F3600 X108.045 Y105.783
G1 F1800 X109.841 Y107.579 E24.84665
G0 X109.911 Y107.649
G0 F3600 X110.443 Y107.614
G1 F1800 X108.612 Y105.783 E24.97584
G0 X108.542 Y105.713
G0 F3600 X109.804 Y105.844
G1 F1800 X114.155 Y110.195 E25.28282
G0 X114.225 Y110.265
G0 F3600 X113.981 Y109.455
G1 F1800 X110.539 Y106.013 E25.52568
G0 X110.469 Y105.943
G0 F3600 X111.522 Y106.43
G1 F1800 X113.562 Y108.471 E25.66964
G0 X113.632 Y108.541
G0 F3600 X111.699 Y111.533
G0 X109.692 Y114.217
G1 F1800 X105.781 Y110.307 E25.94555
G0 X105.711 Y110.237
G0 F3600 X105.782 Y110.873
G1 F1800 X109.126 Y114.217 E26.18149
G0 X109.196 Y114.287
G0 F3600 X108.559 Y114.216
G1 F1800 X105.782 Y111.439 E26.37742
G0 X105.712 Y111.369
G0 F3600 X105.782 Y112.005
G1 F1800 X107.994 Y114.216 E26.53345
G0 X108.064 Y114.286
G0 F3600 X107.428 Y114.216
G1 F1800 X105.783 Y112.571 E26.64952
G0 X105.713 Y112.501
G0 F3600 X105.783 Y113.137
G1 F1800 X106.862 Y114.216 E26.72565
G0 X106.932 Y114.286
G0 F3600 X106.297 Y114.216
G1 F1800 X105.783 Y113.702 E26.76191
G0 F3600 X106.004 Y113.703
G1 F1500 E20.26191
G0 F3600 X105.801 Y114.378
G0 X105.801 Y115.663
G0 X105.798 Y116.435
G0 X105.798 Y117.72
G0 X105.8 Y117.8
G0 X105.8 Y117.7
;TYPE:WALL-INNER
G1 F1500 E26.76191
G1 F1800 X109.176 Y117.703 E26.93034
G1 X109.541 Y117.728 E26.94859
G1 X109.898 Y117.775 E26.96656
G1 X110.246 Y117.846 E26.98428
G1 X110.609 Y117.945 E27.00305
G1 X110.945 Y118.062 E27.0208
G1 X111.271 Y118.2 E27.03846
G1 X111.593 Y118.363 E27.05647
G1 X111.905 Y118.548 E27.07456
G1 X112.202 Y118.751 E27.09251
G1 X112.489 Y118.98 E27.11083
G1 X112.754 Y119.219 E27.12863
G1 X113.005 Y119.478 E27.14663
G1 X113.23 Y119.744 E27.16401
G1 X113.448 Y120.039 E27.18231
G1 X113.65 Y120.355 E27.20102
G1 X113.814 Y120.654 E27.21803
G1 X113.975 Y121 E27.23707
G1 X114.099 Y121.321 E27.25424
G1 X114.204 Y121.663 E27.27209
G1 X114.293 Y122.035 E27.29117
G1 X114.35 Y122.369 E27.30808
G1 X114.386 Y122.73 E27.32618
G1 X114.4 Y123.1 E27.34465
G1 X114.4 Y126.3 E27.5043
G1 X114.4 Y126.5 E27.51428
G1 X114.2 Y126.5 E27.52074
G1 X105.604 Y126.497 E27.94959
G1 X105.6 Y117.9 E28.3785
G1 X105.6 Y117.7 E28.38848
G1 X105.8 Y117.7 E28.39494
G0 F3600 X105.8 Y117.8
G0 X108.306 Y120.469
G0 X108.378 Y120.538
G1 F1800 X108.191 Y120.763 E28.40953
G1 X108.034 Y121.006 E28.42397
G1 X107.914 Y121.259 E28.43794
G1 X107.857 Y121.415 E28.44622
G1 X107.791 Y121.678 E28.45975
G1 X107.765 Y121.842 E28.46804
G1 X107.752 Y122.116 E28.48172
G1 X107.758 Y122.278 E28.48981
G1 X107.797 Y122.556 E28.50381
G1 X107.874 Y122.838 E28.5184
G1 X107.987 Y123.107 E28.53295
G1 X108.135 Y123.36 E28.54758
G1 X108.314 Y123.59 E28.56212
G1 X108.52 Y123.794 E28.57658
G1 X108.75 Y123.972 E28.59109
G1 X109.006 Y124.119 E28.60582
G1 X109.274 Y124.23 E28.62029
G1 X109.554 Y124.305 E28.63475
G1 X109.842 Y124.345 E28.64926
G1 X110.134 Y124.346 E28.66383
G1 X110.422 Y124.31 E28.67831
G1 X110.704 Y124.237 E28.69284
G1 X110.975 Y124.128 E28.70741
G1 X111.23 Y123.984 E28.72202
G1 X111.462 Y123.809 E28.73652
G1 X111.67 Y123.607 E28.75099
G1 X111.851 Y123.38 E28.76547
G1 X112.001 Y123.13 E28.78002
G1 X112.118 Y122.862 E28.79461
G1 X112.199 Y122.582 E28.80915
G1 X112.242 Y122.293 E28.82373
G1 X112.248 Y122.001 E28.8383
G1 X112.216 Y121.711 E28.85285
G1 X112.148 Y121.429 E28.86733
G1 X112.043 Y121.158 E28.88182
G1 X111.905 Y120.9 E28.89642
G1 X111.733 Y120.665 E28.91095
G1 X111.535 Y120.453 E28.92542
G1 X111.307 Y120.268 E28.94007
G1 X111.06 Y120.114 E28.95459
G1 X110.796 Y119.995 E28.96904
G1 X110.519 Y119.909 E28.98351
G1 X110.228 Y119.86 E28.99823
G1 X109.939 Y119.85 E29.01266
G1 X109.65 Y119.876 E29.02714
G1 X109.364 Y119.941 E29.04177
G1 X109.091 Y120.042 E29.05629
G1 X108.834 Y120.176 E29.07075
G1 X108.596 Y120.341 E29.0852
