;FLAVOR:RepRap
;TIME:7690
;Filament used: 4.01696m
;Layer height: 0.1
;Generated with Cura_SteamEngine 2.4.0
M190 S55
M104 S205
M109 S205
G28 ;Home
G1 Z15.0 F6000 ;Move the platform down 15mm
;Prime the extruder
G92 E0
G1 F200 E3
G92 E0
;LAYER_COUNT:68
;LAYER:0
M107
G1 F1500 E-6.5
G0 F3600 X65.454 Y82.345 Z0.3
;TYPE:SKIRT
G1 F1500 E0
G1 F1800 X65.992 Y81.984 E0.03232
G1 X67.56 Y81.146 E0.12102
G1 X68.089 Y80.922 E0.14968
G1 X69.128 Y80.588 E0.20413
G1 X69.551 Y80.483 E0.22588
G1 X70.627 Y80.293 E0.28039
G1 X71.199 Y80.244 E0.30903
G1 X72.976 Y80.253 E0.39769
G1 X73.559 Y80.31 E0.42691
G1 X74.677 Y80.523 E0.48369
G1 X75.003 Y80.603 E0.50044
G1 X78.107 Y81.54 E0.6622
G1 X83.483 Y82.934 E0.93928
G1 X86.119 Y83.499 E1.07378
G1 X91.53 Y84.42 E1.34761
G1 X96.989 Y85.036 E1.62169
G1 X99.546 Y85.222 E1.7496
G1 X99.974 Y85.283 E1.77117
G1 X100.633 Y85.422 E1.80477
G1 X101.112 Y85.562 E1.82967
G1 X106.237 Y87.513 E2.10325
G1 X111.434 Y89.179 E2.37553
G1 X116.802 Y90.572 E2.65221
G1 X119.381 Y91.123 E2.78378
G1 X124.822 Y92.049 E3.05914
G1 X130.26 Y92.661 E3.33215
G1 X135.727 Y92.966 E3.60533
G1 X177.234 Y93.014 E5.67612
G1 X177.738 Y93.055 E5.70135
G1 X178.385 Y93.23 E5.73479
G1 X178.659 Y93.336 E5.74945
G1 X179.114 Y93.555 E5.77464
G1 X179.53 Y93.843 E5.79988
G1 X179.754 Y94.044 E5.8149
G1 X181.146 Y95.42 E5.91255
G1 X181.335 Y95.624 E5.92642
G1 X181.871 Y96.255 E5.96773
G1 X182.167 Y96.665 E5.99295
G1 X182.394 Y97.117 E6.01819
G1 X182.548 Y97.598 E6.04339
G1 X182.632 Y98.323 E6.0798
G1 X182.668 Y130.856 E7.70288
G1 X182.658 Y131.114 E7.71576
G1 X182.578 Y132.117 E7.76596
G1 X182.498 Y132.617 E7.79122
G1 X182.34 Y133.097 E7.81643
G1 X182.109 Y133.547 E7.84167
G1 X181.669 Y134.108 E7.87724
G1 X180.284 Y135.515 E7.97573
G1 X180.21 Y135.587 E7.98089
G1 X179.68 Y136.092 E8.01741
G1 X179.288 Y136.41 E8.04259
G1 X178.85 Y136.663 E8.06783
G1 X178.194 Y136.893 E8.10251
G1 X177.805 Y136.983 E8.12243
G1 X177.09 Y137.065 E8.15833
G1 X152.699 Y137.111 E9.37521
G1 X147.234 Y137.421 E9.6483
G1 X141.781 Y138.039 E9.92209
G1 X136.383 Y138.965 E10.19533
G1 X131.074 Y140.187 E10.46712
G1 X128.423 Y140.916 E10.60429
G1 X123.204 Y142.594 E10.8778
G1 X118.098 Y144.561 E11.15078
G1 X113.08 Y146.828 E11.4255
G1 X110.673 Y148.04 E11.55995
G1 X105.863 Y150.727 E11.83482
G1 X102.33 Y152.908 E12.04196
G1 X101.746 Y153.191 E12.07434
G1 X101.28 Y153.361 E12.09909
G1 X100.793 Y153.496 E12.1243
G1 X100.471 Y153.542 E12.14053
G1 X96.22 Y153.926 E12.35348
G1 X90.776 Y154.604 E12.62718
G1 X85.352 Y155.595 E12.90226
G1 X82.751 Y156.183 E13.0353
G1 X74.48 Y158.448 E13.46313
G1 X73.881 Y158.553 E13.49347
G1 X72.599 Y158.652 E13.55762
G1 X72.05 Y158.647 E13.58501
G1 X70.63 Y158.512 E13.65618
G1 X69.998 Y158.386 E13.68833
G1 X68.28 Y157.861 E13.77795
G1 X67.706 Y157.623 E13.80895
G1 X66.595 Y157.029 E13.87181
G1 X66.178 Y156.762 E13.89651
G1 X65.163 Y155.997 E13.95992
G1 X64.828 Y155.707 E13.98203
G1 X64.203 Y155.083 E14.02609
G1 X63.949 Y154.797 E14.04517
G1 X63.284 Y153.952 E14.09882
G1 X62.989 Y153.505 E14.12554
G1 X62.246 Y152.142 E14.20299
G1 X62.009 Y151.588 E14.23305
G1 X61.535 Y150.111 E14.31044
G1 X61.406 Y149.522 E14.34052
G1 X61.234 Y148.119 E14.41104
G1 X61.216 Y147.534 E14.44024
G1 X61.445 Y143.804 E14.62668
G1 X61.608 Y138.277 E14.90254
G1 X61.46 Y132.773 E15.17724
G1 X61.214 Y128.834 E15.37414
G1 X61.213 Y128.451 E15.39325
G1 X61.567 Y122.312 E15.70003
G1 X61.573 Y116.846 E15.97273
G1 X61.215 Y110.51 E16.28934
G1 X61.213 Y110.192 E16.3052
G1 X61.387 Y106.158 E16.50665
G1 X61.419 Y100.652 E16.78135
G1 X61.138 Y95.136 E17.0569
G1 X60.849 Y91.51 E17.23838
G1 X60.856 Y90.93 E17.26731
G1 X60.991 Y89.611 E17.33346
G1 X61.09 Y89.083 E17.36026
G1 X61.467 Y87.721 E17.43077
G1 X61.618 Y87.295 E17.45332
G1 X61.913 Y86.619 E17.49012
G1 X62.077 Y86.295 E17.50823
G1 X62.691 Y85.235 E17.56935
G1 X63.004 Y84.788 E17.59657
G1 X63.924 Y83.686 E17.66819
G1 X64.334 Y83.276 E17.69712
G1 X65.454 Y82.345 E17.76978
G1 F1500 E11.26978
G0 F3600 X63.509 Y89.807
G0 X63.364 Y91.402
G0 X63.502 Y92.933
G0 X63.923 Y94.451
G0 X64.601 Y95.851
G0 X65.531 Y97.121
G0 X66.661 Y98.192
G0 X67.98 Y99.05
G0 X69.416 Y99.651
G0 X100.704 Y106.645
G0 X101.635 Y107.167
G0 X102.375 Y107.931
G0 X114.037 Y123.525
G0 X114.244 Y123.524
;TYPE:SUPPORT
G1 F1500 E17.76978
G1 F1800 X114.272 Y123.357 E17.77823
G1 X114.272 Y123.696 E17.79514
G1 X114.244 Y123.524 E17.80384
G1 F1500 E11.30384
G0 F3600 X114.037 Y123.525
G0 X100.536 Y94.729
G0 X100.038 Y93.546
G0 X100.004 Y93.474
G0 X100.046 Y93.564
;TYPE:WALL-INNER
G1 F1500 E17.80384
G1 F1800 X99.881 Y93.634 E17.81278
G1 X99.731 Y93.685 E17.82068
G1 X99.549 Y93.732 E17.83006
G1 X99.384 Y93.763 E17.83844
G1 X99.202 Y93.783 E17.84757
G1 X99.007 Y93.79 E17.85731
G1 X79.05 Y93.79 E18.85296
G1 X78.758 Y94.468 E18.88979
G1 X78.609 Y94.775 E18.90682
G1 X78.453 Y95.064 E18.9232
G1 X78.286 Y95.343 E18.93943
G1 X78.09 Y95.636 E18.95701
G1 X77.895 Y95.902 E18.97347
G1 X77.686 Y96.161 E18.99007
G1 X77.465 Y96.41 E19.00668
G1 X77.227 Y96.657 E19.02379
G1 X76.997 Y96.874 E19.03957
G1 X76.736 Y97.099 E19.05676
G1 X76.466 Y97.312 E19.07392
G1 X76.209 Y97.496 E19.08969
G1 X75.924 Y97.682 E19.10667
G1 X75.626 Y97.856 E19.12388
G1 X75.338 Y98.009 E19.14015
G1 X75.034 Y98.152 E19.15691
G1 X74.727 Y98.28 E19.17351
G1 X74.398 Y98.4 E19.19098
G1 X74.076 Y98.501 E19.20782
G1 X73.778 Y98.581 E19.22321
G1 X73.433 Y98.656 E19.24082
G1 X73.122 Y98.709 E19.25656
G1 X72.776 Y98.751 E19.27395
G1 X72.447 Y98.777 E19.29042
G1 X72.101 Y98.79 E19.30769
G1 X71.771 Y98.786 E19.32416
G1 X71.446 Y98.767 E19.3404
G1 X71.108 Y98.731 E19.35736
G1 X70.771 Y98.682 E19.37435
G1 X70.444 Y98.618 E19.39097
G1 X70.128 Y98.542 E19.40719
G1 X69.798 Y98.445 E19.42435
G1 X69.494 Y98.341 E19.44038
G1 X69.168 Y98.214 E19.45783
G1 X68.871 Y98.082 E19.47404
G1 X68.564 Y97.928 E19.49118
G1 X68.28 Y97.769 E19.50742
G1 X67.986 Y97.588 E19.52464
G1 X67.712 Y97.4 E19.54122
G1 X67.436 Y97.193 E19.55843
G1 X67.196 Y96.994 E19.57399
G1 X66.944 Y96.765 E19.59098
G1 X66.694 Y96.518 E19.60851
G1 X66.474 Y96.279 E19.62472
G1 X66.259 Y96.023 E19.64139
G1 X66.061 Y95.764 E19.65766
G1 X65.859 Y95.475 E19.67525
G1 X65.689 Y95.206 E19.69113
G1 X65.516 Y94.902 E19.70858
G1 X65.363 Y94.603 E19.72533
G1 X65.23 Y94.31 E19.74139
G1 X65.103 Y93.996 E19.75828
G1 X64.993 Y93.682 E19.77488
G1 X64.898 Y93.367 E19.7913
G1 X64.813 Y93.027 E19.80878
G1 X64.745 Y92.698 E19.82554
G1 X64.695 Y92.372 E19.842
G1 X64.659 Y92.052 E19.85806
G1 X64.636 Y91.707 E19.87531
G1 X64.629 Y91.413 E19.88999
G1 X64.639 Y91.014 E19.9099
G1 X64.661 Y90.701 E19.92555
G1 X64.702 Y90.365 E19.94244
G1 X64.753 Y90.038 E19.95895
G1 X64.825 Y89.703 E19.97605
G1 X64.906 Y89.385 E19.99242
G1 X65.004 Y89.066 E20.00907
G1 X65.112 Y88.761 E20.02521
G1 X65.241 Y88.448 E20.0421
G1 X65.392 Y88.119 E20.06016
G1 X65.541 Y87.832 E20.07629
G1 X65.699 Y87.558 E20.09207
G1 X65.884 Y87.268 E20.10923
G1 X66.07 Y87.003 E20.12539
G1 X66.281 Y86.731 E20.14256
G1 X66.504 Y86.469 E20.15973
G1 X66.725 Y86.231 E20.17593
G1 X66.976 Y85.985 E20.19346
G1 X67.219 Y85.768 E20.20972
G1 X67.471 Y85.561 E20.22599
G1 X67.746 Y85.356 E20.2431
G1 X68.024 Y85.169 E20.25981
G1 X68.294 Y85.003 E20.27563
G1 X68.601 Y84.833 E20.29313
G1 X68.895 Y84.689 E20.30947
G1 X69.209 Y84.549 E20.32662
G1 X69.52 Y84.429 E20.34325
G1 X69.828 Y84.326 E20.35945
G1 X70.144 Y84.235 E20.37586
G1 X70.479 Y84.155 E20.39304
G1 X70.804 Y84.094 E20.40954
G1 X71.149 Y84.043 E20.42694
G1 X71.456 Y84.013 E20.44233
G1 X71.817 Y83.995 E20.46036
G1 X72.133 Y83.992 E20.47613
G1 X72.477 Y84.005 E20.4933
G1 X72.813 Y84.032 E20.51012
G1 X73.144 Y84.075 E20.52677
G1 X73.473 Y84.132 E20.54343
G1 X73.791 Y84.203 E20.55968
G1 X74.113 Y84.29 E20.57633
G1 X74.434 Y84.393 E20.59314
G1 X74.747 Y84.509 E20.6098
G1 X75.063 Y84.642 E20.6269
G1 X75.357 Y84.781 E20.64313
G1 X75.659 Y84.942 E20.6602
G1 X75.93 Y85.102 E20.6759
G1 X76.218 Y85.291 E20.69309
G1 X76.497 Y85.493 E20.71027
G1 X76.767 Y85.707 E20.72746
G1 X77.012 Y85.92 E20.74366
G1 X77.247 Y86.145 E20.75989
G1 X77.485 Y86.393 E20.77704
G1 X77.707 Y86.645 E20.79379
G1 X77.903 Y86.889 E20.80941
G1 X78.1 Y87.161 E20.82616
G1 X78.298 Y87.46 E20.84405
G1 X78.458 Y87.727 E20.85958
G1 X78.625 Y88.037 E20.87715
G1 X78.763 Y88.323 E20.89299
G1 X79.05 Y88.99 E20.92922
G1 X99.007 Y88.99 E21.92488
G1 X99.202 Y88.997 E21.93461
G1 X99.384 Y89.017 E21.94375
G1 X99.549 Y89.048 E21.95212
G1 X99.723 Y89.093 E21.96109
G1 X99.88 Y89.146 E21.96936
G1 X100.055 Y89.222 E21.97888
G1 X100.204 Y89.298 E21.98722
G1 X100.359 Y89.393 E21.99629
G1 X100.486 Y89.484 E22.00409
G1 X100.641 Y89.613 E22.01415
G1 X100.756 Y89.724 E22.02212
G1 X100.875 Y89.857 E22.03102
G1 X100.98 Y89.993 E22.0396
G1 X101.084 Y90.15 E22.04899
G1 X101.153 Y90.272 E22.05598
G1 X101.236 Y90.45 E22.06578
G1 X101.302 Y90.622 E22.07497
G1 X101.354 Y90.795 E22.08399
G1 X101.387 Y90.944 E22.0916
G1 X101.415 Y91.137 E22.10133
G1 X101.427 Y91.296 E22.10928
G1 X101.427 Y91.484 E22.11866
G1 X101.415 Y91.641 E22.12652
G1 X101.387 Y91.83 E22.13605
G1 X101.348 Y92.006 E22.14505
G1 X101.304 Y92.152 E22.15265
G1 X101.234 Y92.336 E22.16247
G1 X101.163 Y92.487 E22.1708
G1 X101.083 Y92.631 E22.17902
G1 X100.974 Y92.795 E22.18884
G1 X100.879 Y92.919 E22.19664
G1 X100.763 Y93.049 E22.20533
G1 X100.631 Y93.176 E22.21447
G1 X100.494 Y93.291 E22.22339
G1 X100.349 Y93.393 E22.23224
G1 X100.204 Y93.482 E22.24072
G1 X100.046 Y93.564 E22.2496
G0 F3600 X100.03 Y94.005
;TYPE:WALL-OUTER
G1 F1800 X99.843 Y94.069 E22.25946
G1 X99.639 Y94.122 E22.26998
G1 X99.434 Y94.16 E22.28038
G1 X99.232 Y94.182 E22.29052
G1 X99.022 Y94.19 E22.301
G1 X79.313 Y94.19 E23.28429
G1 X79.118 Y94.643 E23.3089
G1 X78.968 Y94.952 E23.32603
G1 X78.796 Y95.27 E23.34407
G1 X78.619 Y95.565 E23.36123
G1 X78.423 Y95.859 E23.37886
G1 X78.214 Y96.143 E23.39645
G1 X77.993 Y96.417 E23.41401
G1 X77.753 Y96.688 E23.43208
G1 X77.515 Y96.935 E23.44919
G1 X77.258 Y97.177 E23.4668
G1 X76.984 Y97.413 E23.48484
G1 X76.714 Y97.626 E23.502
G1 X76.427 Y97.831 E23.51959
G1 X76.132 Y98.023 E23.53715
G1 X75.827 Y98.202 E23.5548
G1 X75.508 Y98.371 E23.57281
G1 X75.198 Y98.517 E23.5899
G1 X74.865 Y98.656 E23.60791
G1 X74.535 Y98.777 E23.62544
G1 X74.195 Y98.883 E23.64321
G1 X73.863 Y98.972 E23.66036
G1 X73.519 Y99.047 E23.67792
G1 X73.171 Y99.106 E23.69553
G1 X72.812 Y99.15 E23.71358
G1 X72.469 Y99.177 E23.73074
G1 X72.11 Y99.19 E23.74867
G1 X71.765 Y99.186 E23.76588
G1 X71.404 Y99.165 E23.78392
G1 X71.057 Y99.128 E23.80133
G1 X70.703 Y99.076 E23.81918
G1 X70.361 Y99.01 E23.83656
G1 X70.023 Y98.928 E23.85391
G1 X69.676 Y98.826 E23.87195
G1 X69.352 Y98.716 E23.88902
G1 X69.022 Y98.587 E23.9067
G1 X68.692 Y98.44 E23.92472
G1 X68.385 Y98.286 E23.94186
G1 X68.07 Y98.11 E23.95986
G1 X67.776 Y97.929 E23.97709
G1 X67.478 Y97.725 E23.9951
G1 X67.196 Y97.513 E24.01271
G1 X66.932 Y97.295 E24.02979
G1 X66.664 Y97.051 E24.04787
G1 X66.413 Y96.803 E24.06547
G1 X66.18 Y96.55 E24.08263
G1 X65.953 Y96.28 E24.10023
G1 X65.733 Y95.993 E24.11827
G1 X65.531 Y95.704 E24.13586
G1 X65.342 Y95.406 E24.15347
G1 X65.168 Y95.1 E24.17103
G1 X65.007 Y94.786 E24.18863
G1 X64.861 Y94.466 E24.20618
G1 X64.732 Y94.146 E24.2234
G1 X64.615 Y93.813 E24.241
G1 X64.511 Y93.467 E24.25903
G1 X64.425 Y93.125 E24.27662
G1 X64.353 Y92.779 E24.29426
G1 X64.3 Y92.433 E24.31172
G1 X64.26 Y92.08 E24.32944
G1 X64.236 Y91.72 E24.34744
G1 X64.229 Y91.403 E24.36326
G1 X64.239 Y91.004 E24.38317
G1 X64.263 Y90.662 E24.40028
G1 X64.307 Y90.303 E24.41832
G1 X64.36 Y89.964 E24.43544
G1 X64.434 Y89.619 E24.45305
G1 X64.524 Y89.268 E24.47112
G1 X64.627 Y88.932 E24.48866
G1 X64.742 Y88.608 E24.50581
G1 X64.877 Y88.281 E24.52346
G1 X65.028 Y87.952 E24.54152
G1 X65.186 Y87.648 E24.55861
G1 X65.362 Y87.343 E24.57618
G1 X65.557 Y87.038 E24.59424
G1 X65.754 Y86.758 E24.61132
G1 X65.976 Y86.472 E24.62938
G1 X66.199 Y86.21 E24.64655
G1 X66.445 Y85.945 E24.66459
G1 X66.696 Y85.699 E24.68212
G1 X66.952 Y85.47 E24.69926
G1 X67.232 Y85.24 E24.71734
G1 X67.507 Y85.035 E24.73445
G1 X67.807 Y84.833 E24.75249
G1 X68.1 Y84.653 E24.76965
G1 X68.416 Y84.478 E24.78767
G1 X68.725 Y84.326 E24.80485
G1 X69.055 Y84.18 E24.82285
G1 X69.375 Y84.056 E24.83997
G1 X69.717 Y83.942 E24.85796
G1 X70.047 Y83.847 E24.87509
G1 X70.394 Y83.764 E24.89289
G1 X70.746 Y83.698 E24.91076
G1 X71.093 Y83.647 E24.92826
G1 X71.436 Y83.613 E24.94545
G1 X71.797 Y83.595 E24.96349
G1 X72.144 Y83.592 E24.9808
G1 X72.503 Y83.605 E24.99872
G1 X72.853 Y83.634 E25.01624
G1 X73.195 Y83.678 E25.03345
G1 X73.546 Y83.739 E25.05122
G1 X73.891 Y83.816 E25.06886
G1 X74.235 Y83.909 E25.08663
G1 X74.562 Y84.014 E25.10377
G1 X74.902 Y84.14 E25.12186
G1 X75.218 Y84.273 E25.13896
G1 X75.545 Y84.428 E25.15702
G1 X75.847 Y84.589 E25.17409
G1 X76.15 Y84.768 E25.19165
G1 X76.453 Y84.967 E25.20973
G1 X76.732 Y85.169 E25.22692
G1 X77.015 Y85.393 E25.24493
G1 X77.274 Y85.618 E25.26204
G1 X77.536 Y85.868 E25.28011
G1 X77.774 Y86.116 E25.29726
G1 X78.007 Y86.38 E25.31482
G1 X78.227 Y86.654 E25.33236
G1 X78.434 Y86.94 E25.34997
G1 X78.632 Y87.239 E25.36786
G1 X78.81 Y87.537 E25.38518
G1 X78.977 Y87.847 E25.40275
G1 X79.13 Y88.165 E25.42035
G1 X79.313 Y88.59 E25.44344
G1 X99.022 Y88.59 E26.42672
G1 X99.232 Y88.598 E26.43721
G1 X99.434 Y88.62 E26.44734
G1 X99.639 Y88.658 E26.45775
G1 X99.843 Y88.711 E26.46826
G1 X100.025 Y88.773 E26.47785
G1 X100.223 Y88.858 E26.4886
G1 X100.396 Y88.947 E26.49831
G1 X100.574 Y89.056 E26.50872
G1 X100.739 Y89.173 E26.51882
G1 X100.898 Y89.306 E26.52916
G1 X101.05 Y89.452 E26.53967
G1 X101.182 Y89.6 E26.54957
G1 X101.302 Y89.756 E26.55938
G1 X101.423 Y89.938 E26.57029
G1 X101.516 Y90.103 E26.57974
G1 X101.605 Y90.294 E26.59025
G1 X101.681 Y90.493 E26.60088
G1 X101.741 Y90.69 E26.61115
G1 X101.781 Y90.874 E26.62055
G1 X101.813 Y91.091 E26.63149
G1 X101.827 Y91.281 E26.64099
G1 X101.827 Y91.5 E26.65192
G1 X101.813 Y91.689 E26.66138
G1 X101.781 Y91.905 E26.67227
G1 X101.738 Y92.099 E26.68218
G1 X101.681 Y92.288 E26.69203
G1 X101.605 Y92.487 E26.70266
G1 X101.517 Y92.674 E26.71297
G1 X101.423 Y92.843 E26.72262
G1 X101.304 Y93.023 E26.73338
G1 X101.186 Y93.176 E26.74302
G1 X101.05 Y93.328 E26.7532
G1 X100.898 Y93.475 E26.76375
G1 X100.739 Y93.608 E26.77409
G1 X100.575 Y93.724 E26.78411
G1 X100.402 Y93.83 E26.79423
G1 X100.211 Y93.929 E26.80497
G1 X100.03 Y94.005 E26.81476
G0 F3600 X99.843 Y94.069
G0 X99.841 Y94.069
G0 X99.72 Y93.497
;TYPE:SKIN
G1 F1800 X95.392 Y89.17 E27.12009
G0 X95.322 Y89.1
G0 F3600 X94.827 Y89.17
G1 F1800 X99.252 Y93.595 E27.4323
G0 X99.322 Y93.665
G0 F3600 X98.7 Y93.608
G1 F1800 X94.261 Y89.17 E27.74546
G0 X94.191 Y89.1
G0 F3600 X93.695 Y89.17
G1 F1800 X98.134 Y93.608 E28.05862
G0 X98.204 Y93.678
G0 F3600 X97.568 Y93.608
G1 F1800 X93.13 Y89.17 E28.37174
G0 X93.06 Y89.1
G0 F3600 X92.564 Y89.17
G1 F1800 X97.003 Y93.608 E28.6849
G0 X97.073 Y93.678
G0 F3600 X96.437 Y93.608
G1 F1800 X91.998 Y89.17 E28.99806
G0 X91.928 Y89.1
G0 F3600 X91.433 Y89.17
G1 F1800 X95.871 Y93.608 E29.31119
G0 X95.941 Y93.678
G0 F3600 X95.305 Y93.608
G1 F1800 X90.867 Y89.17 E29.62431
G0 X90.797 Y89.1
G0 F3600 X90.301 Y89.17
G1 F1800 X94.74 Y93.608 E29.93747
G0 X94.81 Y93.678
G0 F3600 X94.174 Y93.608
G1 F1800 X89.736 Y89.17 E30.2506
G0 X89.666 Y89.1
G0 F3600 X89.17 Y89.17
G1 F1800 X93.608 Y93.608 E30.56372
G0 X93.678 Y93.678
G0 F3600 X93.043 Y93.608
G1 F1800 X88.604 Y89.17 E30.87688
G0 X88.534 Y89.1
G0 F3600 X88.039 Y89.17
G1 F1800 X92.477 Y93.608 E31.19001
G0 X92.547 Y93.678
G0 F3600 X91.911 Y93.608
G1 F1800 X87.473 Y89.17 E31.50313
G0 X87.403 Y89.1
G0 F3600 X86.907 Y89.17
G1 F1800 X91.346 Y93.608 E31.81629
G0 X91.416 Y93.678
G0 F3600 X90.78 Y93.608
G1 F1800 X86.341 Y89.17 E32.12945
G0 X86.271 Y89.1
G0 F3600 X85.776 Y89.17
G1 F1800 X90.214 Y93.608 E32.44258
G0 X90.284 Y93.678
G0 F3600 X89.649 Y93.608
G1 F1800 X85.21 Y89.17 E32.75574
G0 X85.14 Y89.1
G0 F3600 X84.644 Y89.17
G1 F1800 X89.083 Y93.608 E33.0689
G0 X89.153 Y93.678
G0 F3600 X88.517 Y93.608
G1 F1800 X84.079 Y89.17 E33.38202
G0 X84.009 Y89.1
G0 F3600 X83.513 Y89.17
G1 F1800 X87.952 Y93.608 E33.69518
G0 X88.022 Y93.678
G0 F3600 X87.386 Y93.608
